wp-content/themes/thousand_one/images/logo/brands/logo-asus.svg

<svg width="200" height="120" viewBox="0 0 200 120" fill="none" xmlns="http://www.w3.org/2000/svg">
<path d="M191.5 45.2002C191.5 42.9002 193.3 41.1002 195.6 41.1002C196.7 41.1002 197.7 41.5002 198.5 42.3002C199.3 43.1002 199.7 44.1002 199.7 45.2002C199.7 46.3002 199.3 47.3002 198.5 48.1002C197.7 48.9002 196.7 49.3002 195.6 49.3002C193.3 49.3002 191.5 47.5002 191.5 45.2002ZM191.2 45.2002C191.2 47.7002 193.2 49.7002 195.6 49.7002C196.8 49.7002 197.9 49.3002 198.7 48.4002C199.5 47.5002 200 46.4002 200 45.2002C200 44.0002 199.6 42.9002 198.7 42.0002C197.8 41.1002 196.8 40.7002 195.6 40.7002C193.1 40.7002 191.2 42.7002 191.2 45.2002ZM193.9 47.8002H194.5V45.7002H195.9C196.1 45.7002 196.3 45.7002 196.5 45.8002C196.7 45.9002 196.8 46.1002 196.8 46.4002L196.9 47.2002V47.6002C196.9 47.7002 196.9 47.7002 197 47.7002H197.8V47.6002C197.7 47.6002 197.7 47.5002 197.6 47.3002C197.6 47.2002 197.6 47.1002 197.6 46.9002V46.3002C197.6 46.0002 197.5 45.8002 197.5 45.7002C197.4 45.6002 197.2 45.5002 197.1 45.4002C197.3 45.3002 197.5 45.1002 197.6 45.0002C197.7 44.9002 197.7 44.6002 197.7 44.3002C197.7 43.7002 197.5 43.4002 197.1 43.1002C196.9 43.0002 196.6 43.0002 196.2 43.0002H194L193.9 47.8002ZM194.5 45.2002V43.5002H196C196.2 43.5002 196.4 43.5002 196.5 43.6002C196.7 43.7002 196.8 44.0002 196.8 44.3002C196.8 44.6002 196.7 44.9002 196.5 45.0002C196.4 45.1002 196.1 45.2002 195.8 45.2002H194.5ZM18.1 51.3002L0 79.8002H12.4L29.8 52.6002L18.1 51.3002ZM92.6 50.7002V40.2002H57.4C52.6 40.5002 50.5 42.8002 48.9 44.4002C47.2 46.2002 46.3 49.8002 46.3 49.8002V40.2002H27.6C26.2 40.2002 24.8 40.8002 23.8 42.2002C22.8 43.6002 18.5 50.7002 18.5 50.7002H92.6ZM188.3 50.7002V40.2002H150.7C145.9 40.5002 143.8 42.8002 142.2 44.4002C140.5 46.2002 139.6 49.8002 139.6 49.8002V50.7002H188.3ZM105 40.2002H94.4V50.7002H105V40.2002ZM139.5 40.2002H129V50.7002H139.5V40.2002ZM139.5 54.5002L129.1 53.9002V66.0002C129.1 66.0002 129.1 69.5002 125.7 69.5002H108C108 69.5002 105 69.2002 105 66.0002V52.2002L94.6 51.5002V70.2002C96.3 79.1002 104.4 79.8002 104.4 79.8002C104.4 79.8002 105.2 79.8002 105.4 79.9002H129.4C129.4 79.9002 139.7 79.1002 139.7 69.2002L139.5 54.5002ZM35.6 79.8002H84.8C93.4 78.1002 94.3 70.3002 94.3 70.3002C94.7 68.0002 94.5 66.1002 94.5 66.1002C94.2 64.5002 91.3 57.6002 84.9 57.0002C81.1 56.6002 46.9 53.9002 46.9 53.9002C47.6 57.3002 49.1 59.1002 50.1 60.0002C52.5 62.3002 56.2 62.9002 56.2 62.9002L82.5 65.1002C83.3 65.1002 84.8 65.4002 84.8 67.4002C84.8 67.7002 84.6 69.4002 82.6 69.4002H45.9V53.8002L35.7 53.0002C35.6 53.0002 35.6 79.8002 35.6 79.8002ZM139.6 79.8002H177.3C186.8 79.2002 188.1 70.3002 188.1 70.3002C188.4 68.0002 188.2 66.0002 188.2 66.0002C187.9 63.9002 184.9 57.5002 178.5 56.8002C174.7 56.4002 140.3 54.4002 140.3 54.4002C141.3 57.9002 142.7 59.0002 143.7 60.0002C146.1 62.3002 149.6 62.8002 149.6 62.8002C150.5 62.9002 176.2 65.0002 176.2 65.0002C177 65.0002 178.7 65.1002 178.7 67.1002C178.7 67.7002 178.4 68.3002 178 68.7002C178 68.7002 177.1 69.2002 176.2 69.2002H139.6V79.8002Z" fill="#00539B"/>
<rect x="0.5" y="0.5" width="199" height="119" stroke="black"/>
</svg>

<?xml version="1.0" encoding="utf-8"?>
<!-- Generator: Adobe Illustrator 24.0.1, SVG Export Plug-In . SVG Version: 6.00 Build 0)  -->
<svg version="1.1" id="Слой_1" xmlns="http://www.w3.org/2000/svg" xmlns:xlink="http://www.w3.org/1999/xlink" x="0px" y="0px"
	 viewBox="0 0 200 120" style="enable-background:new 0 0 200 120;" xml:space="preserve">
<style type="text/css">
	.st0{fill:#00539B;}
</style>
<path class="st0" d="M191.5,45.2c0-2.3,1.8-4.1,4.1-4.1c1.1,0,2.1,0.4,2.9,1.2c0.8,0.8,1.2,1.8,1.2,2.9c0,1.1-0.4,2.1-1.2,2.9
	c-0.8,0.8-1.8,1.2-2.9,1.2C193.3,49.3,191.5,47.5,191.5,45.2 M191.2,45.2c0,2.5,2,4.5,4.4,4.5c1.2,0,2.3-0.4,3.1-1.3
	c0.8-0.9,1.3-2,1.3-3.2s-0.4-2.3-1.3-3.2s-1.9-1.3-3.1-1.3C193.1,40.7,191.2,42.7,191.2,45.2 M193.9,47.8h0.6v-2.1h1.4
	c0.2,0,0.4,0,0.6,0.1c0.2,0.1,0.3,0.3,0.3,0.6l0.1,0.8v0.4c0,0.1,0,0.1,0.1,0.1h0.8v-0.1c-0.1,0-0.1-0.1-0.2-0.3c0-0.1,0-0.2,0-0.4
	l0-0.6c0-0.3-0.1-0.5-0.1-0.6c-0.1-0.1-0.3-0.2-0.4-0.3c0.2-0.1,0.4-0.3,0.5-0.4s0.1-0.4,0.1-0.7c0-0.6-0.2-0.9-0.6-1.2
	c-0.2-0.1-0.5-0.1-0.9-0.1H194L193.9,47.8z M194.5,45.2v-1.7h1.5c0.2,0,0.4,0,0.5,0.1c0.2,0.1,0.3,0.4,0.3,0.7
	c0,0.3-0.1,0.6-0.3,0.7c-0.1,0.1-0.4,0.2-0.7,0.2H194.5z M18.1,51.3L0,79.8h12.4l17.4-27.2L18.1,51.3z M92.6,50.7V40.2H57.4
	c-4.8,0.3-6.9,2.6-8.5,4.2c-1.7,1.8-2.6,5.4-2.6,5.4v-9.6H27.6c-1.4,0-2.8,0.6-3.8,2c-1,1.4-5.3,8.5-5.3,8.5H92.6z M188.3,50.7V40.2
	h-37.6c-4.8,0.3-6.9,2.6-8.5,4.2c-1.7,1.8-2.6,5.4-2.6,5.4v0.9H188.3z M105,40.2H94.4v10.5H105V40.2z M139.5,40.2H129v10.5h10.5
	V40.2z M139.5,54.5l-10.4-0.6V66c0,0,0,3.5-3.4,3.5H108c0,0-3-0.3-3-3.5V52.2l-10.4-0.7v18.7c1.7,8.9,9.8,9.6,9.8,9.6s0.8,0,1,0.1
	h24c0,0,10.3-0.8,10.3-10.7L139.5,54.5z M35.6,79.8h49.2c8.6-1.7,9.5-9.5,9.5-9.5c0.4-2.3,0.2-4.2,0.2-4.2c-0.3-1.6-3.2-8.5-9.6-9.1
	c-3.8-0.4-38-3.1-38-3.1c0.7,3.4,2.2,5.2,3.2,6.1c2.4,2.3,6.1,2.9,6.1,2.9l26.3,2.2c0.8,0,2.3,0.3,2.3,2.3c0,0.3-0.2,2-2.2,2H45.9
	V53.8L35.7,53C35.6,53,35.6,79.8,35.6,79.8z M139.6,79.8h37.7c9.5-0.6,10.8-9.5,10.8-9.5c0.3-2.3,0.1-4.3,0.1-4.3
	c-0.3-2.1-3.3-8.5-9.7-9.2c-3.8-0.4-38.2-2.4-38.2-2.4c1,3.5,2.4,4.6,3.4,5.6c2.4,2.3,5.9,2.8,5.9,2.8c0.9,0.1,26.6,2.2,26.6,2.2
	c0.8,0,2.5,0.1,2.5,2.1c0,0.6-0.3,1.2-0.7,1.6c0,0-0.9,0.5-1.8,0.5h-36.6L139.6,79.8z"/>
</svg>
